static/images/icons/web.svg

<svg fill="none" height="42" viewBox="0 0 42 42" width="42" xmlns="http://www.w3.org/2000/svg" xmlns:xlink="http://www.w3.org/1999/xlink"><linearGradient id="a" gradientUnits="userSpaceOnUse" x1="8.5" x2="34.5" y1="7" y2="36"><stop offset="0" stop-color="#fec976"/><stop offset=".5" stop-color="#ffea8d"/><stop offset="1" stop-color="#cade39"/></linearGradient><clipPath id="b"><path d="m0 0h42v42h-42z"/></clipPath><g clip-path="url(#b)"><path d="m21 42c11.598 0 21-9.402 21-21 0-11.59798-9.402-21-21-21-11.59798 0-21 9.40202-21 21 0 11.598 9.40202 21 21 21z" fill="url(#a)"/><path d="m9 21c0-3.1826 1.2643-6.2348 3.5147-8.4853 2.2505-2.2504 5.3027-3.5147 8.4853-3.5147s6.2348 1.2643 8.4853 3.5147c2.2504 2.2505 3.5147 5.3027 3.5147 8.4853s-1.2643 6.2348-3.5147 8.4853c-2.2505 2.2504-5.3027 3.5147-8.4853 3.5147s-6.2348-1.2643-8.4853-3.5147c-2.2504-2.2505-3.5147-5.3027-3.5147-8.4853zm11.25-10.3845c-1.005.306-2.0025 1.23-2.8305 2.7825-.215.403-.4125.839-.5925 1.308 1.0575.2355 2.208.3855 3.423.4305zm-4.8765 3.693c.214-.577.4545-1.116.7215-1.617.2611-.4894.5605-.9574.8955-1.3995-1.2772.5289-2.4374 1.3047-3.414 2.283.544.277 1.143.5205 1.797.7335zm-1.11 5.9415c.054-1.605.282-3.1305.654-4.512-.8123-.2586-1.5983-.5936-2.3475-1.0005-1.195 1.6039-1.9041 3.5172-2.043 5.5125zm2.1-4.1115c-.3542 1.3435-.5555 2.7228-.6 4.1115h4.4865v-3.6135c-1.365-.045-2.6745-.2175-3.8865-.498zm5.3865.4965v3.615h4.485c-.0441-1.3887-.2448-2.7679-.5985-4.1115-1.212.2805-2.5215.45-3.8865.4965zm-5.985 5.115c.0525 1.4805.264 2.871.5985 4.1115 1.2766-.2898 2.5781-.4561 3.8865-.4965v-3.615zm5.985 0v3.6135c1.365.045 2.6745.2175 3.8865.498.3345-1.2405.546-2.631.6-4.1115zm-4.923 5.544c.18.469.3775.905.5925 1.308.828 1.5525 1.827 2.475 2.8305 2.7825v-4.5195c-1.215.045-2.3655.1935-3.423.429zm.165 3.414c-.3355-.4421-.6355-.91-.897-1.3995-.2757-.5231-.5167-1.0638-.7215-1.6185-.617.1984-1.2178.4441-1.797.735.9766.9783 2.1383 1.7541 3.4155 2.283zm-2.0745-4.446c-.3889-1.4743-.6088-2.988-.6555-4.512h-3.735c.1389 1.9953.848 3.9086 2.043 5.5125.705-.387 1.4925-.723 2.3475-1.0005zm10.092 4.446c1.2765-.5286 2.4362-1.3039 3.4125-2.2815-.5787-.2908-1.179-.5365-1.7955-.735-.2049.5542-.4459 1.0944-.7215 1.617-.2611.4894-.5605.9574-.8955 1.3995zm-3.2595-3.8445v4.521c1.005-.306 2.0025-1.23 2.8305-2.7825.216-.403.4135-.839.5925-1.308-1.1255-.2471-2.2713-.3921-3.423-.4305zm5.3325-.6015c.855.2775 1.6425.6135 2.3475 1.0005 1.195-1.6039 1.9041-3.5172 2.043-5.5125h-3.735c-.0467 1.524-.2666 3.0377-.6555 4.512zm4.3905-6.012c-.1389-1.9953-.848-3.9086-2.043-5.5125-.705.387-1.4925.723-2.3475 1.0005.372 1.38.6 2.907.6555 4.512zm-5.568-7.5585c.266.502.507 1.041.723 1.617.616-.1986 1.2158-.4443 1.794-.735-.9765-.9771-2.1361-1.7519-3.4125-2.28.327.4245.627.8955.8955 1.398zm-.732 2.0145c-.1712-.4474-.3691-.8842-.5925-1.308-.828-1.5525-1.8255-2.475-2.8305-2.7825v4.5195c1.215-.045 2.3655-.1935 3.423-.429z" fill="#000"/></g></svg>

<svg width="42" height="42" viewBox="0 0 42 42" fill="none" xmlns="http://www.w3.org/2000/svg">
<g clip-path="url(#clip0_586_4549)">
<path d="M21 42C32.598 42 42 32.598 42 21C42 9.40202 32.598 0 21 0C9.40202 0 0 9.40202 0 21C0 32.598 9.40202 42 21 42Z" fill="url(#paint0_linear_586_4549)"/>
<path d="M9 21C9 17.8174 10.2643 14.7652 12.5147 12.5147C14.7652 10.2643 17.8174 9 21 9C24.1826 9 27.2348 10.2643 29.4853 12.5147C31.7357 14.7652 33 17.8174 33 21C33 24.1826 31.7357 27.2348 29.4853 29.4853C27.2348 31.7357 24.1826 33 21 33C17.8174 33 14.7652 31.7357 12.5147 29.4853C10.2643 27.2348 9 24.1826 9 21ZM20.25 10.6155C19.245 10.9215 18.2475 11.8455 17.4195 13.398C17.2045 13.801 17.007 14.237 16.827 14.706C17.8845 14.9415 19.035 15.0915 20.25 15.1365V10.6155ZM15.3735 14.3085C15.5875 13.7315 15.828 13.1925 16.095 12.6915C16.3561 12.2021 16.6555 11.7341 16.9905 11.292C15.7133 11.8209 14.5531 12.5967 13.5765 13.575C14.1205 13.852 14.7195 14.0955 15.3735 14.3085ZM14.2635 20.25C14.3175 18.645 14.5455 17.1195 14.9175 15.738C14.1052 15.4794 13.3192 15.1444 12.57 14.7375C11.375 16.3414 10.6659 18.2547 10.527 20.25H14.2635ZM16.3635 16.1385C16.0093 17.482 15.808 18.8613 15.7635 20.25H20.25V16.6365C18.885 16.5915 17.5755 16.419 16.3635 16.1385ZM21.75 16.635V20.25H26.235C26.1909 18.8613 25.9902 17.4821 25.6365 16.1385C24.4245 16.419 23.115 16.5885 21.75 16.635ZM15.765 21.75C15.8175 23.2305 16.029 24.621 16.3635 25.8615C17.6401 25.5717 18.9416 25.4054 20.25 25.365V21.75H15.765ZM21.75 21.75V25.3635C23.115 25.4085 24.4245 25.581 25.6365 25.8615C25.971 24.621 26.1825 23.2305 26.2365 21.75H21.75ZM16.827 27.294C17.007 27.763 17.2045 28.199 17.4195 28.602C18.2475 30.1545 19.2465 31.077 20.25 31.3845V26.865C19.035 26.91 17.8845 27.0585 16.827 27.294ZM16.992 30.708C16.6565 30.2659 16.3565 29.798 16.095 29.3085C15.8193 28.7854 15.5783 28.2447 15.3735 27.69C14.7565 27.8884 14.1557 28.1341 13.5765 28.425C14.5531 29.4033 15.7148 30.1791 16.992 30.708ZM14.9175 26.262C14.5286 24.7877 14.3087 23.274 14.262 21.75H10.527C10.6659 23.7453 11.375 25.6586 12.57 27.2625C13.275 26.8755 14.0625 26.5395 14.9175 26.262ZM25.0095 30.708C26.286 30.1794 27.4457 29.4041 28.422 28.4265C27.8433 28.1357 27.243 27.89 26.6265 27.6915C26.4216 28.2457 26.1806 28.7859 25.905 29.3085C25.6439 29.7979 25.3445 30.2659 25.0095 30.708ZM21.75 26.8635V31.3845C22.755 31.0785 23.7525 30.1545 24.5805 28.602C24.7965 28.199 24.994 27.763 25.173 27.294C24.0475 27.0469 22.9017 26.9019 21.75 26.8635ZM27.0825 26.262C27.9375 26.5395 28.725 26.8755 29.43 27.2625C30.625 25.6586 31.3341 23.7453 31.473 21.75H27.738C27.6913 23.274 27.4714 24.7877 27.0825 26.262ZM31.473 20.25C31.3341 18.2547 30.625 16.3414 29.43 14.7375C28.725 15.1245 27.9375 15.4605 27.0825 15.738C27.4545 17.118 27.6825 18.645 27.738 20.25H31.473ZM25.905 12.6915C26.171 13.1935 26.412 13.7325 26.628 14.3085C27.244 14.1099 27.8438 13.8642 28.422 13.5735C27.4455 12.5964 26.2859 11.8216 25.0095 11.2935C25.3365 11.718 25.6365 12.189 25.905 12.6915ZM25.173 14.706C25.0018 14.2586 24.8039 13.8218 24.5805 13.398C23.7525 11.8455 22.755 10.923 21.75 10.6155V15.135C22.965 15.09 24.1155 14.9415 25.173 14.706Z" fill="black"/>
</g>
<defs>
<linearGradient id="paint0_linear_586_4549" x1="8.5" y1="7" x2="34.5" y2="36" gradientUnits="userSpaceOnUse">
<stop stop-color="#FEC976"/>
<stop offset="0.5" stop-color="#FFEA8D"/>
<stop offset="1" stop-color="#CADE39"/>
</linearGradient>
<clipPath id="clip0_586_4549">
<rect width="42" height="42" fill="white"/>
</clipPath>
</defs>
</svg>
